X:5
M:2/4
L:1/8
Q:1/4=100
K:D
|:c/d/|ecfd|geaf|B2 cd|c/d/c/B/ Ac/d/|ecfd|geaf|G>b a/g/f/e/|d3:|

